icon-themes/sifr_svg/cmd/lc_formatungroup.svg

<svg viewBox="0 0 24 24" xmlns="http://www.w3.org/2000/svg"><path d="m1 2v2h2v-2zm12 0v2h2v-2zm-5 2a5 5 0 0 0 -5 5 5 5 0 0 0 5 5 5 5 0 0 0 5-5 5 5 0 0 0 -5-5zm12 2v2h2v-2zm-5.080078 4a7 7 0 0 1 -3.919922 5.316406v2.683594h8v-8zm-13.919922 4v2h2v-2zm7 6v2h2v-2zm12 0v2h2v-2z" fill="#555753"/></svg>

<svg xmlns="http://www.w3.org/2000/svg" viewBox="0 0 24 24">
  <path
     style="fill:#555753"
     d="M 1 2 L 1 4 L 3 4 L 3 2 L 1 2 z M 13 2 L 13 4 L 15 4 L 15 2 L 13 2 z M 8 4 A 5 5 0 0 0 3 9 A 5 5 0 0 0 8 14 A 5 5 0 0 0 13 9 A 5 5 0 0 0 8 4 z M 20 6 L 20 8 L 22 8 L 22 6 L 20 6 z M 14.919922 10 A 7 7 0 0 1 11 15.316406 L 11 18 L 19 18 L 19 10 L 14.919922 10 z M 1 14 L 1 16 L 3 16 L 3 14 L 1 14 z M 8 20 L 8 22 L 10 22 L 10 20 L 8 20 z M 20 20 L 20 22 L 22 22 L 22 20 L 20 20 z "
     />
</svg>
